X:1
T:Is It Nothing to You?
T:Is It Nothing to You?
T:May Whittle Moody
T:John Ralston Clements, 1896, alt.
T:Public Domain Courtesy of the Cyber Hymnal™
T:Public Domain Courtesy of the Cyber Hymnal™
C:May Whittle Moody
Z:Public Domain
Z:Courtesy of the Cyber Hymnal™
%%score ( 1 2 ) ( 3 4 )
L:1/8
Q:1/4=95
M:4/4
K:Eb
V:1 treble 
V:2 treble 
V:3 bass 
V:4 bass 
V:1
 [GB][GB] | [Gc]<[Gc] [GB]2 [EG]2 (^FG) | [EA]2 [EG]2 [CF]2 ([EF][EG]) | [EA]2 (CC) [CG]2 [CF]2 | %4
w: 1.~Is it|no- thing to you that *|Hea- ven’s king Came *|down to~this * world of|
w: 2.~Is it|no- thing to you that *|by and by You~must *|tra- vel * death’s dark|
w: 3.~Is it|no- thing to you that *|some sweet day, In~the *|hea- venly * land so|
 (E4 D2) ([DB][DB]) | ([Ec]<[Ec]) [EB]2 [EG]2 ([E^F][EG]) | [EA]2 ([EG][EG]) [B,E]2 ([EF][EG]) | %7
w: woe? * That~He *|suffered * and bled, and *|rose from~the * dead, That~e- *|
w: vale? * Where *|Jordan’s * cold wave does~the *|path- way * lave, And *|
w: fair, * You~may *|join * the song that~the *|ran- somed * throng Are~for- *|
 [EF]2 [EG]2 [E=A]2 ([Fd][Ec]) | ([Ec]4 [DB]2) ||"^Refrain" [AB][Ac] | %10
w: ter- nal life you~might *|know? *||
w: all but Christ doth *|fail? *|Is it|
w: ev- er sing- ing *|there? *||
 [Ad]<[Ad] [Ac]2 [FA]2 ([GB][Ac]) | [GB]2 [EG]2 [GB]2 [FA][EG] | [DF]2 [EG][EG] [FA]2 [AB]2 | %13
w: |||
w: no- thing to you that *|grace is free, And that|God in His love doth|
w: |||
 ([GB]4 [EG]2) [GB][Gc] | [Ad]<[Ad] [Ac]2 [FA]2 [GB][Ac] | %15
w: ||
w: call? * Is it|no- thing to you? Is it|
w: ||
 [GB]<[GB] [EB]2 !fermata![Ee]2 [E=A][EA] | [EB]<[EB] z2 [DG]<[DG] [DF]2 | [B,E]6 |] %18
w: |||
w: no- thing to you? Is it|no- thing, no- thing to|you?|
w: |||
V:2
 x2 | x6 E2 | x8 | x2 CC x4 | B,6 x2 | x8 | x8 | x8 | x6 || x2 | x8 | x8 | x8 | x8 | x8 | x8 | x8 | %17
 x6 |] %18
V:3
 [E,B,][E,B,] | [E,E]<[E,E] [E,E]2 [E,B,]2 (=A,B,) | [E,C]2 [E,B,]2 [E,G,]2 ([A,C][A,C]) | %3
 [F,C]2 ([F,,A,][F,,A,]) [A,,B,]2 [A,,B,]2 | (G,4 F,2) ([B,,A,][B,,A,]) | %5
 ([E,G,]<[E,G,]) [E,G,]2 [E,B,]2 ([E,=A,][E,B,]) | [E,C]2 ([E,B,][E,B,]) [E,G,]2 ([C,A,][C,B,]) | %7
 [F,=A,]2 [F,B,]2 [F,C]2 ([F,B,][F,A,]) | ([F,=A,]4 [B,,B,]2) || [B,,D][B,,E] | %10
 [B,,F]<[B,,F] [D,F]2 [F,D]2 [B,,D]2 | [E,E]2 [E,B,]2 [E,E]2 [E,B,][E,B,] | %12
 [B,,B,]2 [B,,B,][B,,B,] [D,B,]2 [B,,D]2 | (E4 B,2) [E,E][E,E] | %14
 [B,,F]<[B,,F] [D,F]2 [F,D]2 [B,,D][B,,D] | [E,E]<[E,E] [E,G,]2 !fermata![C,G,]2 [_C,^F,][C,F,] | %16
 [B,,G,]<[B,,F,] z2 [B,,B,]<[B,,B,] [B,,A,]2 | [E,,G,]6 |] %18
V:4
 x2 | x6 E,2 | x8 | x8 | B,,6 x2 | x8 | x8 | x8 | x6 || x2 | x8 | x8 | x8 | E,6 x2 | x8 | x8 | x8 | %17
 x6 |] %18

